X:1
T:Tu che sei tanto bello
T:Giovanni Animuccia
T:Source : Secondo libro delle Laude spirituali a tre et a quattro voci---Roma---A.Gardano---1583. Editor : André Vierendeels (28/11/17). Notes : Original clefs : C1, C2, F4 Editorial accidentals above the staff Music compiled by Francisco Soto de Langa
T:Tu che sei tanto bello
T:©
T:©
C:Giovanni Animuccia
Z:©
%%score [ 1 2 3 ]
L:1/8
Q:1/4=120
M:4/4
K:F
V:1 treble nm="Soprano" snm="S"
V:2 treble nm="Alto" snm="A"
V:3 bass nm="Bass" snm="B"
V:1
 A8 | B4 A2 G2- | G2 c2 A4 | A4 A4 | B4 A2 G2- | G2 c2 A4 | A8 :: d8 | c4 d2 c2- | c2 B2 A4 | A8 | %11
w: Tu|che sei tan-|* to bel-|lo, tu|che sei tan-|* to buo-|no,|a|me che son|_ si fel-|lo,|
w: Oh'|co- me'al suo|_ con- spet-|to, fug|ge- ria ro-|* st'o- gn'om-|bra|che|l'ar- sa del|_ mio pet-|to,|
 d8 | c4 d2 c2- | c2 B2 A4 | A4 z2 A2 | B2 c2 d2 c2 | A4 G4 | z2 F2 F2 F2 | F2 F2 F4 | G2 A4 B2 | %20
w: che|si de- for-|* me so-|no, per|che non dai si-|gno- re,|qual- che sen-|til- la del|tuo san- to'a-|
w: d'os-|cu- ra nu-|* be'in- gom-|bra, O|co- me'il giac- cio|sal- do,|si strug- ge-|reb- b'et ver-|ria lu- c'e|
 G8 | F8 :| %22
w: mo-|re.|
w: cal-|do.|
V:2
 F8 | G4 F2 E2- | E2 E2 F4 | F4 F4 | G4 F2 E2- | E2 E2 F4 | F8 :: B8 | A4 B2 A2- | A2 G2 F4 | F8 | %11
w: Tu|che sei tan-|* to bel-|lo, tu|che sei tan-|* to buo-|no,|a|me che son|_ si fel-|lo,|
w: Lu-|ci che mi|_ fe- con-|di, lu-|ce che m'in-|* na- mo-|ri,|per-|che te ne|_ vai fo-|ri?|
 B8 | A4 B2 A2- | A2 G2 F4 | F4 z2 F2 | G2 A2 B2 G2- |"^#" G2 F2 G4 | z2 D2 D2 D2 | D2 D2 D4 | %19
w: che|si de- for-|* me so-|no, per|che non dai si-|* gno- re,|qual- che sen-|til- la del|
w: per-|che me ti|_ m'as- con-|di? Deh|la- scia ch'io ti|_ ve- da|se non ch'io|re- sto'a gli'a-|
 D2 D4 F2- | F2 ED E4 | F8 :| %22
w: tuo san- to'a-|mo- * * *|re.|
w: mi- ci pre-||da.|
V:3
 F,8 | _E,4 F,2 C,2- | C,2 C,2 F,4 | F,4 F,4 | _E,4 F,2 C,2- | C,2 C,2 F,4 | F,8 :: B,,8 | %8
w: Tu|che sei tan-|* to bel-|lo, tu|che sei tan-|* to buo-|no,|a|
w: Cal-|do d'a- mor|_ vi- va-|ce, tu|l'os- sa mia|_ pe- ne-|tra,|O|
w: Ti|sen- to'a- mor,|_ ti sen-|to, gia|la fredd' om-|* bra ca-|de;|mai|
 F,4 B,,2 F,2- | F,2 G,2 D,4 | D,8 | B,,8 | F,4 B,,2 F,2- | F,2 G,2 D,4 | D,4 z2 D,2 | %15
w: me che son|_ si fel-|lo,|che|si de- for-|* me so-|no, per|
w: di- vi- na|_ for- na-|ce,|rom-|p'il mio cuor|_ di pie-|tra; se|
w: piu non mi|_ la- men-|to|de|la tua lar-|* gi- ta-|de; O|
 G,2 F,2 B,,2 C,2 | D,4 G,,4 | z2 B,,2 B,,2 B,,2 | B,,2 B,,2 B,,4 | G,,2 D,4 B,,2 | C,8 | F,8 :| %22
w: che non dai si-|gno- re,|qual che sen-|til- la del|tuo san- to'a-|mo-|re.|
w: mia sa- lu- te|bra- mi,|dhe fa si-|gnor, ch'io co-|gnos- ca, et|a-|mi.|
w: mi- se- ri mor-|ta- li,|ec- co lo|scam- po'à tutt'|i vo- stri|ma-|li.|

